public/static/img/common/close.svg

<svg width="16" height="16" viewBox="0 0 16 16" fill="none" xmlns="http://www.w3.org/2000/svg">
<path fill-rule="evenodd" clip-rule="evenodd" d="M16 8C16 12.4183 12.4183 16 8 16C3.58172 16 0 12.4183 0 8C0 3.58172 3.58172 0 8 0C12.4183 0 16 3.58172 16 8ZM8.36349 8.00622L8.36337 8.00634L10.9241 10.5593C10.9481 10.5831 10.9672 10.6114 10.9803 10.6426C10.9933 10.6738 11 10.7073 11 10.7412C11 10.7421 11 10.743 11 10.744C11 10.7429 11 10.7419 11 10.7409C11 10.7071 10.9933 10.6736 10.9803 10.6424C10.9672 10.6112 10.9481 10.5828 10.9241 10.5591L8.36349 8.00622ZM5.00031 10.7302C5.00178 10.7007 5.00834 10.6716 5.01974 10.6443C5.03277 10.6131 5.05186 10.5848 5.07591 10.561L7.48477 8.15784L7.63663 8.00634L7.63652 8.00623L7.48465 8.15774L5.07592 10.5608C5.05187 10.5846 5.03278 10.6129 5.01975 10.6441C5.00832 10.6715 5.00175 10.7006 5.00031 10.7302ZM4.89922 5.59525L7.29745 8.00548L4.90717 10.3901C4.86075 10.4361 4.82344 10.4913 4.79827 10.5516C4.77301 10.6122 4.76001 10.6771 4.76001 10.7426C4.76001 10.8082 4.77301 10.8731 4.79827 10.9336C4.82344 10.9939 4.86028 11.0487 4.90668 11.0947C4.99983 11.1876 5.126 11.2398 5.2576 11.2398C5.38941 11.2398 5.51578 11.1874 5.60897 11.0942L8.00007 8.70078L10.391 11.0925C10.4842 11.1856 10.6106 11.2381 10.7424 11.2381C10.874 11.2381 11.0002 11.1859 11.0933 11.093C11.1397 11.047 11.1766 10.9922 11.2018 10.9319C11.227 10.8714 11.24 10.8065 11.24 10.7409C11.24 10.6754 11.227 10.6104 11.2018 10.5499C11.1766 10.4896 11.1393 10.4344 11.0929 10.3884L8.70262 8.00542L11.0943 5.60194L11.0998 5.59609C11.1875 5.5018 11.2353 5.37713 11.233 5.24835C11.2308 5.11958 11.1786 4.99666 11.0876 4.90552C10.9965 4.81437 10.8736 4.76212 10.7448 4.75984C10.6159 4.75757 10.4912 4.80534 10.3969 4.89322L7.99995 7.29416L5.60273 4.89458L5.59592 4.88871C5.50103 4.80697 5.37877 4.76405 5.25357 4.76859C5.12838 4.77314 5.00955 4.8248 4.92083 4.91319C4.83211 5.00158 4.78002 5.12018 4.7749 5.24527C4.76978 5.37036 4.812 5.49282 4.89319 5.58816L4.89922 5.59525Z" fill="white" fill-opacity="0.7"/>
</svg>

<svg width="16" height="16" fill="none" xmlns="http://www.w3.org/2000/svg"><path fill-rule="evenodd" clip-rule="evenodd" d="M16 8A8 8 0 1 1 0 8a8 8 0 0 1 16 0Zm-7.637.006 2.561 2.553a.258.258 0 0 1 .076.182v.003-.003a.256.256 0 0 0-.076-.182l-2.56-2.553ZM5 10.73a.256.256 0 0 1 .076-.169l2.409-2.403.152-.152-.152.152-2.41 2.403a.256.256 0 0 0-.075.17Zm-.1-5.135 2.397 2.41-2.39 2.385a.499.499 0 0 0 0 .705.497.497 0 0 0 .702 0L8 8.7l2.391 2.391a.497.497 0 1 0 .702-.704l-2.39-2.383 2.391-2.403.006-.006a.498.498 0 0 0-.703-.703L8 7.294l-2.397-2.4-.007-.005a.497.497 0 0 0-.703.7l.006.006Z" fill="#fff" fill-opacity=".7"/></svg>
